X: 18464
T: Hush-a-ba, Birdie
R: jig
M: 6/8
K: Gmajor
B>AG EGA|B3 d3|B>AG EGA|B4 B2|
d2 d e>ee|G2 A B2 B/c/|dBA G>ED|E3 G2 z||

